plasma/desktoptheme/McSur-dark/icons/apport.svg

<?xml version="1.0" encoding="UTF-8" standalone="no"?>
<svg
   xmlns:dc="http://purl.org/dc/elements/1.1/"
   xmlns:cc="http://creativecommons.org/ns#"
   xmlns:rdf="http://www.w3.org/1999/02/22-rdf-syntax-ns#"
   xmlns:svg="http://www.w3.org/2000/svg"
   xmlns="http://www.w3.org/2000/svg"
   id="svg19"
   viewBox="0 0 54 32"
   version="1.1">
  <metadata
     id="metadata21">
    <rdf:RDF>
      <cc:Work
         rdf:about="">
        <dc:format>image/svg+xml</dc:format>
        <dc:type
           rdf:resource="http://purl.org/dc/dcmitype/StillImage" />
        <dc:title></dc:title>
      </cc:Work>
    </rdf:RDF>
  </metadata>
  <defs
     id="defs5">
    <style
       type="text/css"
       id="current-color-scheme"> .ColorScheme-Text { color:#363636; } </style>
  </defs>
  <g
     id="apport">
    <path
       id="path7"
       fill="none"
       d="m22 0v32h32v-32z" />
    <path
       id="path9"
       fill="currentColor"
       d="m29 4c-1.662 0-3 1.338-3 3v18c0 1.662 1.338 3 3 3h18c1.662 0 3-1.338 3-3v-18c0-1.662-1.338-3-3-3h-18zm0 2h18c0.554 0 1 0.446 1 1v18c0 0.554-0.446 1-1 1h-18c-0.554 0-1-0.446-1-1v-18c0-0.554 0.446-1 1-1zm8 2c-0.554 0-1 0.446-1 1v8c0 0.554 0.446 1 1 1h2c0.554 0 1-0.446 1-1v-8c0-0.554-0.446-1-1-1h-2zm0 12c-0.554 0-1 0.446-1 1v2c0 0.554 0.446 1 1 1h2c0.554 0 1-0.446 1-1v-2c0-0.554-0.446-1-1-1h-2z"
       class="ColorScheme-Text" />
  </g>
  <g
     id="22-22-apport">
    <path
       id="path12"
       fill="none"
       d="m0 10v22h22v-22z" />
    <g
       id="g16"
       fill="currentColor"
       class="ColorScheme-Text">
      <path
         id="path14"
         d="m5 13c-1.108 0-2 0.892-2 2v12c0 1.108 0.892 2 2 2h12c1.108 0 2-0.892 2-2v-12c0-1.108-0.892-2-2-2h-12zm0 2h12v12h-12v-12zm6 1c-0.554 0-1 0.446-1 1v5c0 0.554 0.446 1 1 1s1-0.446 1-1v-5c0-0.554-0.446-1-1-1zm0 8a1 1 0 0 0-1 1 1 1 0 0 0 1 1 1 1 0 0 0 1-1 1 1 0 0 0-1-1z" />
    </g>
  </g>
</svg>

<?xml version="1.0" encoding="UTF-8" standalone="no"?>
<svg
   xmlns:dc="http://purl.org/dc/elements/1.1/"
   xmlns:cc="http://creativecommons.org/ns#"
   xmlns:rdf="http://www.w3.org/1999/02/22-rdf-syntax-ns#"
   xmlns:svg="http://www.w3.org/2000/svg"
   xmlns="http://www.w3.org/2000/svg"
   xmlns:sodipodi="http://sodipodi.sourceforge.net/DTD/sodipodi-0.dtd"
   xmlns:inkscape="http://www.inkscape.org/namespaces/inkscape"
   id="svg19"
   viewBox="0 0 32 32"
   version="1.1"
   sodipodi:docname="apport.svg"
   width="32"
   height="32"
   inkscape:version="1.0.2 (e86c870879, 2021-01-15)">
  <sodipodi:namedview
     pagecolor="#ffffff"
     bordercolor="#666666"
     borderopacity="1"
     objecttolerance="10"
     gridtolerance="10"
     guidetolerance="10"
     inkscape:pageopacity="0"
     inkscape:pageshadow="2"
     inkscape:window-width="1920"
     inkscape:window-height="938"
     id="namedview13"
     showgrid="true"
     inkscape:zoom="7.5359251"
     inkscape:cx="22.732094"
     inkscape:cy="29.941528"
     inkscape:window-x="0"
     inkscape:window-y="38"
     inkscape:window-maximized="1"
     inkscape:current-layer="svg19">
    <inkscape:grid
       type="xygrid"
       id="grid838" />
  </sodipodi:namedview>
  <metadata
     id="metadata21">
    <rdf:RDF>
      <cc:Work
         rdf:about="">
        <dc:format>image/svg+xml</dc:format>
        <dc:type
           rdf:resource="http://purl.org/dc/dcmitype/StillImage" />
        <dc:title></dc:title>
      </cc:Work>
    </rdf:RDF>
  </metadata>
  <defs
     id="defs5">
    <style
       type="text/css"
       id="current-color-scheme"> .ColorScheme-Text { color:#363636; } </style>
  </defs>
  <g
     id="apport"
     transform="translate(-22)">
    <path
       id="path7"
       fill="none"
       d="M 22,0 V 32 H 54 V 0 Z" />
    <path
       id="path9"
       fill="currentColor"
       d="m 29,4 c -1.662,0 -3,1.338 -3,3 v 18 c 0,1.662 1.338,3 3,3 h 18 c 1.662,0 3,-1.338 3,-3 V 7 C 50,5.338 48.662,4 47,4 Z m 0,2 h 18 c 0.554,0 1,0.446 1,1 v 18 c 0,0.554 -0.446,1 -1,1 H 29 c -0.554,0 -1,-0.446 -1,-1 V 7 c 0,-0.554 0.446,-1 1,-1 z m 8,2 c -0.554,0 -1,0.446 -1,1 v 8 c 0,0.554 0.446,1 1,1 h 2 c 0.554,0 1,-0.446 1,-1 V 9 C 40,8.446 39.554,8 39,8 Z m 0,12 c -0.554,0 -1,0.446 -1,1 v 2 c 0,0.554 0.446,1 1,1 h 2 c 0.554,0 1,-0.446 1,-1 v -2 c 0,-0.554 -0.446,-1 -1,-1 z"
       class="ColorScheme-Text" />
  </g>
  <g
     id="22-22-apport"
     transform="translate(-22)">
    <path
       id="path12"
       fill="none"
       d="M 0,10 V 32 H 22 V 10 Z" />
    <g
       id="g16"
       fill="currentColor"
       class="ColorScheme-Text">
      <path
         id="path14"
         d="m 5,13 c -1.108,0 -2,0.892 -2,2 v 12 c 0,1.108 0.892,2 2,2 h 12 c 1.108,0 2,-0.892 2,-2 V 15 c 0,-1.108 -0.892,-2 -2,-2 z m 0,2 H 17 V 27 H 5 Z m 6,1 c -0.554,0 -1,0.446 -1,1 v 5 c 0,0.554 0.446,1 1,1 0.554,0 1,-0.446 1,-1 v -5 c 0,-0.554 -0.446,-1 -1,-1 z m 0,8 a 1,1 0 0 0 -1,1 1,1 0 0 0 1,1 1,1 0 0 0 1,-1 1,1 0 0 0 -1,-1 z" />
    </g>
  </g>
</svg>
